X:1
T: Lord MacDonald
C:Gow Collection
R:Reel
Q: 232
K:D
M:4/4
L:1/8
|:A|FA Af1/2g1/2 af ed|gf ed Bd BA|FA Af1/2g1/2 af ed|e1/2f1/2gf1/2g1/2 ae2dG|
FA AB AB AF|G2 G2 GA BG|FA AB AB AF|GB AF E2 DA|
FA Af1/2g1/2 af ed|gf ed Bd BA|FA Af1/2g1/2 af ed|e1/2f1/2gf1/2g1/2 ae2dg|
fa ab ab af|g2 g2 ga bg|fa ab ab af|gb af e2 d:|
